GWA/img/icons/icon-facebook.svg

<svg width="360" height="1026" viewBox="0 0 360 1026" fill="none" xmlns="http://www.w3.org/2000/svg">
<path opacity="0.1" d="M596.478 788.043L618.688 768.107L452.215 590.242L883 66.1813L860.791 46.4221L432.297 568.012L313.847 435.696L825.09 23.7962L806.229 0.68495L293.929 413.467L104.974 202.289L331.474 -7.12366L311.203 -29L85.0557 180.06L-101.08 -28.1179L-123.289 -8.18219L63.1987 200.349L-165.593 411.702L-240.153 348.014L-331.81 -21.7667L-360.718 -14.5334L-279.107 314.67L-502.082 123.958L-511.777 148.304L-266.592 364.421L-238.214 478.919L-522 741.082L-501.73 762.959L-230.106 511.91L-161.539 788.011L-424.702 1004.48L-405.842 1027.59L-153.607 820.12L-100.375 1034.83L-71.4674 1027.59L-128.048 799.125L60.5548 644.05L233.47 791.892L29.7086 1021.24L51.9178 1041L256.032 811.122L433.707 962.845L453.096 940.087L275.95 788.716L432.297 612.647L596.478 788.043ZM83.1167 222.401L270.839 432.344L60.9074 605.061L-142.678 431.109L83.1167 222.401ZM-227.638 397.765L-187.45 431.991L-213.184 455.808L-227.638 397.765ZM-136.157 767.016L-205.252 488.799L-164.888 451.574L37.2879 624.291L-136.157 767.016ZM253.212 769.486L83.8218 624.82L290.756 454.573L412.203 590.418L253.212 769.486Z" fill="#D4B982"/>
</svg>

<svg width="360" height="1026" fill="none" xmlns="http://www.w3.org/2000/svg"><path opacity=".1" d="M596.478 788.043l22.21-19.936-166.473-177.865L883 66.182l-22.209-19.76-428.494 521.59-118.45-132.316 511.243-411.9L806.229.685l-512.3 412.782-188.955-211.178 226.5-209.413L311.203-29 85.056 180.06-101.08-28.118l-22.209 19.936L63.199 200.349l-228.792 211.353-74.56-63.688-91.657-369.78-28.908 7.233 81.611 329.203-222.975-190.712-9.695 24.346 245.185 216.117 28.378 114.498L-522 741.082l20.27 21.877 271.624-251.049 68.567 276.101-263.163 216.469 18.86 23.11 252.235-207.47 53.232 214.71 28.908-7.24-56.581-228.465L60.555 644.05 233.47 791.892 29.709 1021.24 51.918 1041l204.114-229.878 177.675 151.723 19.389-22.758L275.95 788.716l156.347-176.069 164.181 175.396zM83.117 222.401l187.722 209.943L60.907 605.061l-203.585-173.952L83.117 222.401zm-310.755 175.364l40.188 34.226-25.734 23.817-14.454-58.043zm91.481 369.251l-69.095-278.217 40.364-37.225L37.288 624.291l-173.445 142.725zm389.369 2.47L83.822 624.82l206.934-170.247 121.447 135.845-158.991 179.068z" fill="#D4B982"/></svg>
